X: 8180
T: Cooley's
R: hornpipe
M: 4/4
K: Dmajor
(3def|gG {A}(3GFG (3EFG DC|B,G, B,D GB dB|(3cdc Ac (3BcB GB|cB AG A2 (3def|
gG {A}(3GFG (3EFG DC|B,G, B,D GB dB|cB AG Fe dc|{Bc}B2 G2 G2:|
|:(3ddc|BG Bd ed Bd|g2 {a}(3gfg eg dB|dg {a}(3gfg dB GB|cB AG Fe dc|
F#D{E}(3DCD {C}(3BAB cB|{C}(3BAB cB AD F#d|gage dc F#E|{F#c}F#2 D2:|

